dist/assets/img/artifacts/backdrop.svg

<svg width="66" height="67" viewBox="0 0 66 67" fill="none" xmlns="http://www.w3.org/2000/svg">
<path d="M7.80416 3.43937C8.35249 1.8891 9.80885 0.865216 11.4532 0.850831C16.1642 0.809618 26.0079 0.748603 32.9744 0.877842C42.4205 1.05308 55.756 1.7484 62.1174 2.10203C64.1891 2.2172 65.8109 3.89428 65.8518 5.96874C65.9734 12.1442 66.1487 24.8432 65.7697 33.8388C65.3661 43.4173 63.9913 56.9283 63.3088 63.2625C63.0911 65.283 61.391 66.7998 59.3588 66.7998C53.4646 66.7998 41.4837 66.7998 32.9744 66.7998C24.3335 66.7998 12.1127 66.7998 6.32091 66.7998C4.40585 66.7998 2.77156 65.4459 2.45406 63.5573C1.41067 57.3509 -0.611808 43.5471 0.179188 33.8388C1.0228 23.4847 5.76639 9.20062 7.80416 3.43937Z" fill="#EBDAFF"/>
</svg>

<svg width="66" height="67" viewBox="0 0 66 67" fill="none" xmlns="http://www.w3.org/2000/svg"><path d="M7.804 3.44a3.89 3.89 0 013.65-2.59c4.71-.04 14.554-.101 21.52.028 9.447.175 22.782.87 29.143 1.224a3.943 3.943 0 013.735 3.867c.121 6.175.297 18.874-.082 27.87-.404 9.578-1.779 23.09-2.461 29.424a3.96 3.96 0 01-3.95 3.537H6.32c-1.915 0-3.55-1.354-3.867-3.243C1.411 57.351-.612 43.547.18 33.84 1.023 23.485 5.766 9.2 7.804 3.439z" fill="#EBDAFF"/></svg>
